X: 14825
T: Garden Wall, The
R: jig
M: 6/8
K: Gmajor
f|gdB GBd|gag gdB|dBG GBd|AFD DBc|
gdB GBd|gag gdB|cBc Adc|BGG G2f:|
|:gfg dBG|gfg dBG|cdc BcB|aAAA2d|
[1 gfg dBG|gfg dBG|FGA Adc|BGGG2f:|
[2 BAG cBA|dcB edc|Bcd DEF|G3G2||

